file/chevron.svg

<svg clip-rule="evenodd" fill-rule="evenodd" stroke-linejoin="round" stroke-miterlimit="1.41421" viewBox="0 0 560 400" xmlns="http://www.w3.org/2000/svg" xmlns:xlink="http://www.w3.org/1999/xlink"><linearGradient id="a" gradientTransform="matrix(-1 -1 1 -1 1 .5)" gradientUnits="userSpaceOnUse" x1="0" x2="1" y1="0" y2="0"><stop offset="0" stop-color="#06549b"/><stop offset=".55" stop-color="#2fa1d3"/><stop offset=".9" stop-color="#2fa1d3"/><stop offset="1" stop-color="#2fa1d3"/></linearGradient><linearGradient id="b" gradientTransform="matrix(1 -1.35 1.35 1 0 .6)" gradientUnits="userSpaceOnUse" x1="0" x2="1" y1="0" y2="0"><stop offset="0" stop-color="#1371b1"/><stop offset=".05" stop-color="#2fa1d3"/><stop offset=".45" stop-color="#2fa1d3"/><stop offset=".6" stop-color="#06569c"/><stop offset="1" stop-color="#06569c"/></linearGradient><linearGradient id="c" gradientTransform="matrix(-1 -.6 .6 -1 1 .5)" gradientUnits="userSpaceOnUse" x1="0" x2="1" y1="0" y2="0"><stop offset="0" stop-color="#9d1a36"/><stop offset=".4" stop-color="#9d1a36"/><stop offset=".6" stop-color="#e6192f"/><stop offset="1" stop-color="#e6192f"/></linearGradient><linearGradient id="d" gradientTransform="matrix(1 -1.35 1.35 1 0 .6)" gradientUnits="userSpaceOnUse" x1="0" x2="1" y1="0" y2="0"><stop offset="0" stop-color="#a21c38"/><stop offset=".13" stop-color="#e6192f"/><stop offset=".45" stop-color="#e6192f"/><stop offset=".6" stop-color="#a71c37"/><stop offset="1" stop-color="#a71c37"/></linearGradient><g fill-rule="nonzero" transform="matrix(.742444 0 0 .742444 130.704 36.6906)"><g fill="#0056a2"><path d="m85.154 100.157c-2.467 1.204-7.449 2.687-14.838 2.687-20.461 0-32.203-14.073-32.203-32.028 0-21.375 14.962-32.686 33.562-32.686 7.211 0 11.021 1.38 13.475 2.684l-2.273 12.783c-2.732-1.21-5.632-2.312-10.64-2.312-8.858 0-18.254 5.268-18.254 19.295 0 12.548 7.492 19.185 18.328 19.185 4.292 0 7.205-.842 10.567-2.385z"/><path d="m119.129 53.982c-5.512 0-10.846 2.499-13.562 6.513h-.167v-22.141l-13.865 4.8v57.765h13.865v-26.983c0-3.896 2.533-8.087 7.391-8.087 5.197 0 7.199 4.091 7.199 10.042v25.029h13.877v-26.943c0-13.754-5.899-19.995-14.738-19.995z"/><path d="m154.783 82.696c.51 5.851 5.363 8.96 12.862 9.027 4.519.035 9.773-1.279 13.273-3.341l2.092 10.791c-5.268 2.646-11.286 3.671-17.412 3.671-16.504 0-25.35-9.926-25.35-25.133 0-14.71 9.512-24.202 23.766-24.202 14.69 0 21.275 10.816 21.275 24.368 0 1.428-.176 3.754-.334 4.819zm16.658-9.867c0-3.398-1.658-9.34-8.077-9.34-5.628 0-8.282 4.845-8.676 9.34z"/><path d="m201.587 100.919-15.32-45.48h15.297l8.323 32.171h.28l8.324-32.171h15.303l-15.319 45.48z"/><path d="m237.725 70.396c0-6.691-.21-11.056-.495-14.958h13.062l.396 8.454h.351c2.286-6.691 6.673-9.233 11.185-9.489 2.145-.125 3.306.027 4.634.284v13.298c-1.271-.249-3.793-.542-5.566-.379-5.336.491-8.565 4.372-9.471 8.84-.182.926-.276 1.954-.276 3.157v21.315h-13.815v-30.522z"/><path d="m315.584 78.176c0 14.906-8.981 24.667-23.534 24.667-14.556 0-23.543-9.761-23.543-24.667 0-14.908 8.987-24.668 23.543-24.668 14.553 0 23.534 9.761 23.534 24.668m-14.375 0c0-7.401-2.544-13.843-9.159-13.843-6.624 0-9.155 6.441-9.155 13.843 0 7.408 2.531 13.84 9.155 13.84 6.617 0 9.159-6.432 9.159-13.84z"/><path d="m321.75 69.939c0-5.676-.208-10.522-.501-14.5h13.062l.299 6.363h.28c1.809-2.959 6.596-7.82 14.065-7.82 9.141 0 15.108 6.241 15.108 19.629v27.309h-13.853v-25.219c0-5.852-2.008-9.853-7.021-9.853-3.844 0-6.231 2.703-7.117 5.294-.328.949-.462 2.238-.462 3.54v26.237h-13.86z"/></g><path d="m38.608 221.484v-108.47l162.746 54.238z" fill="url(#a)"/><path d="m38.649 221.492 162.705 54.232 162.696-54.232v-108.465l-162.696 54.225z" fill="url(#b)"/><path d="m38.618 347.568-.014-108.505 162.735 54.235z" fill="url(#c)"/><path d="m364.058 239.063-162.75 54.218-162.672 54.267 162.703 54.246 162.719-54.263z" fill="url(#d)"/></g></svg>

<?xml version="1.0" encoding="UTF-8" standalone="no"?>
<!DOCTYPE svg PUBLIC "-//W3C//DTD SVG 1.1//EN" "http://www.w3.org/Graphics/SVG/1.1/DTD/svg11.dtd">
<svg width="100%" height="100%" viewBox="0 0 560 400" version="1.1" xmlns="http://www.w3.org/2000/svg" xmlns:xlink="http://www.w3.org/1999/xlink" xml:space="preserve" xmlns:serif="http://www.serif.com/" style="fill-rule:evenodd;clip-rule:evenodd;stroke-linejoin:round;stroke-miterlimit:1.41421;">
    <g transform="matrix(0.742444,0,0,0.742444,130.704,36.6906)">
        <g>
            <path d="M85.154,100.157C82.687,101.361 77.705,102.844 70.316,102.844C49.855,102.844 38.113,88.771 38.113,70.816C38.113,49.441 53.075,38.13 71.675,38.13C78.886,38.13 82.696,39.51 85.15,40.814L82.877,53.597C80.145,52.387 77.245,51.285 72.237,51.285C63.379,51.285 53.983,56.553 53.983,70.58C53.983,83.128 61.475,89.765 72.311,89.765C76.603,89.765 79.516,88.923 82.878,87.38L85.154,100.157Z" style="fill:rgb(0,86,162);fill-rule:nonzero;"/>
            <path d="M119.129,53.982C113.617,53.982 108.283,56.481 105.567,60.495L105.4,60.495L105.4,38.354L91.535,43.154L91.535,100.919L105.4,100.919L105.4,73.936C105.4,70.04 107.933,65.849 112.791,65.849C117.988,65.849 119.99,69.94 119.99,75.891L119.99,100.92L133.867,100.92L133.867,73.977C133.867,60.223 127.968,53.982 119.129,53.982Z" style="fill:rgb(0,86,162);fill-rule:nonzero;"/>
            <path d="M154.783,82.696C155.293,88.547 160.146,91.656 167.645,91.723C172.164,91.758 177.418,90.444 180.918,88.382L183.01,99.173C177.742,101.819 171.724,102.844 165.598,102.844C149.094,102.844 140.248,92.918 140.248,77.711C140.248,63.001 149.76,53.509 164.014,53.509C178.704,53.509 185.289,64.325 185.289,77.877C185.289,79.305 185.113,81.631 184.955,82.696L154.783,82.696M171.441,72.829C171.441,69.431 169.783,63.489 163.364,63.489C157.736,63.489 155.082,68.334 154.688,72.829L171.441,72.829Z" style="fill:rgb(0,86,162);fill-rule:nonzero;"/>
            <path d="M201.587,100.919L186.267,55.439L201.564,55.439L209.887,87.61L210.167,87.61L218.491,55.439L233.794,55.439L218.475,100.919L201.587,100.919Z" style="fill:rgb(0,86,162);fill-rule:nonzero;"/>
            <path d="M237.725,70.396C237.725,63.705 237.515,59.34 237.23,55.438L250.292,55.438L250.688,63.892L251.039,63.892C253.325,57.201 257.712,54.659 262.224,54.403C264.369,54.278 265.53,54.43 266.858,54.687L266.858,67.985C265.587,67.736 263.065,67.443 261.292,67.606C255.956,68.097 252.727,71.978 251.821,76.446C251.639,77.372 251.545,78.4 251.545,79.603L251.545,100.918L237.73,100.918L237.73,70.396L237.725,70.396Z" style="fill:rgb(0,86,162);fill-rule:nonzero;"/>
            <path d="M315.584,78.176C315.584,93.082 306.603,102.843 292.05,102.843C277.494,102.843 268.507,93.082 268.507,78.176C268.507,63.268 277.494,53.508 292.05,53.508C306.603,53.508 315.584,63.269 315.584,78.176M301.209,78.176C301.209,70.775 298.665,64.333 292.05,64.333C285.426,64.333 282.895,70.774 282.895,78.176C282.895,85.584 285.426,92.016 292.05,92.016C298.667,92.016 301.209,85.584 301.209,78.176Z" style="fill:rgb(0,86,162);fill-rule:nonzero;"/>
            <path d="M321.75,69.939C321.75,64.263 321.542,59.417 321.249,55.439L334.311,55.439L334.61,61.802L334.89,61.802C336.699,58.843 341.486,53.982 348.955,53.982C358.096,53.982 364.063,60.223 364.063,73.611L364.063,100.92L350.21,100.92L350.21,75.701C350.21,69.849 348.202,65.848 343.189,65.848C339.345,65.848 336.958,68.551 336.072,71.142C335.744,72.091 335.61,73.38 335.61,74.682L335.61,100.919L321.75,100.919L321.75,69.939Z" style="fill:rgb(0,86,162);fill-rule:nonzero;"/>
        </g>
        <path d="M38.608,221.484L38.608,113.014L201.354,167.252L38.608,221.484Z" style="fill:url(#_Linear1);fill-rule:nonzero;"/>
        <path d="M38.649,221.492L201.354,275.724L364.05,221.492L364.05,113.027L201.354,167.252L38.649,221.492Z" style="fill:url(#_Linear2);fill-rule:nonzero;"/>
        <path d="M38.618,347.568L38.604,239.063L201.339,293.298L38.618,347.568Z" style="fill:url(#_Linear3);fill-rule:nonzero;"/>
        <path d="M364.058,239.063L201.308,293.281L38.636,347.548L201.339,401.794L364.058,347.531L364.058,239.063Z" style="fill:url(#_Linear4);fill-rule:nonzero;"/>
    </g>
    <defs>
        <linearGradient id="_Linear1" x1="0" y1="0" x2="1" y2="0" gradientUnits="userSpaceOnUse" gradientTransform="matrix(-1,-1,1,-1,1,0.5)"><stop offset="0" style="stop-color:rgb(6,84,155);stop-opacity:1"/><stop offset="0.55" style="stop-color:rgb(47,161,211);stop-opacity:1"/><stop offset="0.9" style="stop-color:rgb(47,161,211);stop-opacity:1"/><stop offset="1" style="stop-color:rgb(47,161,211);stop-opacity:1"/></linearGradient>
        <linearGradient id="_Linear2" x1="0" y1="0" x2="1" y2="0" gradientUnits="userSpaceOnUse" gradientTransform="matrix(1,-1.35,1.35,1,0,0.6)"><stop offset="0" style="stop-color:rgb(19,113,177);stop-opacity:1"/><stop offset="0.05" style="stop-color:rgb(47,161,211);stop-opacity:1"/><stop offset="0.45" style="stop-color:rgb(47,161,211);stop-opacity:1"/><stop offset="0.6" style="stop-color:rgb(6,86,156);stop-opacity:1"/><stop offset="1" style="stop-color:rgb(6,86,156);stop-opacity:1"/></linearGradient>
        <linearGradient id="_Linear3" x1="0" y1="0" x2="1" y2="0" gradientUnits="userSpaceOnUse" gradientTransform="matrix(-1,-0.6,0.6,-1,1,0.5)"><stop offset="0" style="stop-color:rgb(157,26,54);stop-opacity:1"/><stop offset="0.4" style="stop-color:rgb(157,26,54);stop-opacity:1"/><stop offset="0.6" style="stop-color:rgb(230,25,47);stop-opacity:1"/><stop offset="1" style="stop-color:rgb(230,25,47);stop-opacity:1"/></linearGradient>
        <linearGradient id="_Linear4" x1="0" y1="0" x2="1" y2="0" gradientUnits="userSpaceOnUse" gradientTransform="matrix(1,-1.35,1.35,1,0,0.6)"><stop offset="0" style="stop-color:rgb(162,28,56);stop-opacity:1"/><stop offset="0.13" style="stop-color:rgb(230,25,47);stop-opacity:1"/><stop offset="0.45" style="stop-color:rgb(230,25,47);stop-opacity:1"/><stop offset="0.6" style="stop-color:rgb(167,28,55);stop-opacity:1"/><stop offset="1" style="stop-color:rgb(167,28,55);stop-opacity:1"/></linearGradient>
    </defs>
</svg>
